X:1
T:Zachtjes gaan de paardenvoetjes
C:Traditional
Z:Public Domain
L:1/8
M:3/4
K:F
V:1 treble nm="Alto Saxophone" snm="A. Sax."
%%MIDI control 7 95
%%MIDI control 10 51
V:1
 CC |"F" F2 F2 FG |"Csus4" (FE)"C" E4 |"C7" GC GC GA |"F" F4 CC |"F" F2 F2 FG |"Csus4" (FE)"C" E4 | %7
w: Zacht- jes|gaan de paar- den-|voet- _ jes,|trip- pel trap- pel trip- pel|trap. Is het|paard van Sint- er-|klaas- _ je,|
w: ||||* 't *|||
"C7" GC GC GA |"F" F4 FE |"Bb" D2 E2 FD |"F/A" C4 CC |"Gm" B,2 C2"C7" DB, |"F" A,4 CC | %13
w: trip- pel trap- pel trip- pel|trap. Paard- je|is nog lang niet|moe, maar hij|moet naar bed- je|toe. Paard- je|
w: ||||||
"Bb" D2 E2 FG |"A7" A4 AA |"Gm" G2 D2"C7" EG |"F" F4 x2 |] %17
w: is nog lang niet|moe, maar hij|moet naar bed- je|toe.|
w: ||||

